public/icons/dark/apple.darkmode.svg

<svg width="192" height="192" viewBox="0 0 192 192" fill="none" xmlns="http://www.w3.org/2000/svg">
<path d="M97.7805 55.08C104.44 55.08 112.78 50.44 117.75 44.26C122.25 38.66 125.53 30.83 125.53 23C125.53 21.94 125.44 20.87 125.25 20C117.84 20.29 108.94 25.12 103.59 31.6C99.3705 36.53 95.5305 44.26 95.5305 52.18C95.5305 53.34 95.7205 54.5 95.8105 54.89C96.2805 54.99 97.0305 55.08 97.7805 55.08ZM74.3405 172C83.4305 172 87.4605 165.72 98.8105 165.72C110.16 165.72 112.87 171.81 123 171.81C133.13 171.81 139.59 162.34 145.87 153.06C152.9 142.43 155.81 131.99 155.99 131.51C155.33 131.32 136.3 123.3 136.3 100.78C136.3 81.26 151.3 72.47 152.14 71.79C142.2 57.1 127.11 56.72 122.98 56.72C111.82 56.72 102.73 63.68 97.0105 63.68C90.8205 63.68 82.6705 57.11 73.0105 57.11C54.6405 57.11 35.9805 72.76 35.9805 102.33C35.9805 120.69 42.9205 140.11 51.4505 152.67C58.7605 163.3 65.1405 172 74.3205 172H74.3405Z" fill="white"/>
</svg>

<?xml version="1.0" encoding="UTF-8"?><svg id="icons" xmlns="http://www.w3.org/2000/svg" viewBox="0 0 192 192"><path id="_" d="M97.78,55.08c6.66,0,15-4.64,19.97-10.82,4.5-5.6,7.78-13.43,7.78-21.26,0-1.06-.09-2.13-.28-3-7.41,.29-16.31,5.12-21.66,11.6-4.22,4.93-8.06,12.66-8.06,20.58,0,1.16,.19,2.32,.28,2.71,.47,.1,1.22,.19,1.97,.19Zm-23.44,116.92c9.09,0,13.12-6.28,24.47-6.28s14.06,6.09,24.19,6.09,16.59-9.47,22.87-18.75c7.03-10.63,9.94-21.07,10.12-21.55-.66-.19-19.69-8.21-19.69-30.73,0-19.52,15-28.31,15.84-28.99-9.94-14.69-25.03-15.07-29.16-15.07-11.16,0-20.25,6.96-25.97,6.96-6.19,0-14.34-6.57-24-6.57-18.37,0-37.03,15.65-37.03,45.22,0,18.36,6.94,37.78,15.47,50.34,7.31,10.63,13.69,19.33,22.87,19.33Z"/></svg>
